src/assets/slide/block.svg

<svg width="224" height="257" viewBox="0 0 224 257" fill="none" xmlns="http://www.w3.org/2000/svg">
<path d="M194 0L200.364 23.636L224 30L200.364 36.364L194 60L187.636 36.364L164 30L187.636 23.636L194 0Z" fill="#FF7A9D"/>
<path d="M194 0L200.364 23.636L224 30L200.364 36.364L194 60L187.636 36.364L164 30L187.636 23.636L194 0Z" fill="black" fill-opacity="0.2"/>
<path d="M10 211L12.1213 218.879L20 221L12.1213 223.121L10 231L7.87868 223.121L0 221L7.87868 218.879L10 211Z" fill="#FF7A9D"/>
<path d="M10 211L12.1213 218.879L20 221L12.1213 223.121L10 231L7.87868 223.121L0 221L7.87868 218.879L10 211Z" fill="black" fill-opacity="0.2"/>
<path d="M30 217L34.2426 232.757L50 237L34.2426 241.243L30 257L25.7574 241.243L10 237L25.7574 232.757L30 217Z" fill="#FF7A9D"/>
<path d="M30 217L34.2426 232.757L50 237L34.2426 241.243L30 257L25.7574 241.243L10 237L25.7574 232.757L30 217Z" fill="black" fill-opacity="0.2"/>
<rect width="91.1947" height="91.1947" transform="matrix(0.866278 0.499562 -0.866278 0.499562 105 75.6604)" fill="url(#paint0_linear_53_540)"/>
<rect width="91.1947" height="59.2247" transform="matrix(0.866278 0.499562 0 1 26 121.218)" fill="#FF7A9D"/>
<rect width="91.1947" height="59.2247" transform="matrix(0.866278 -0.499562 0 1 105 166.775)" fill="#EC436F"/>
<circle cx="15.6741" cy="15.6741" r="15.6741" transform="matrix(0.866278 0.499562 -0.866278 0.499562 104.896 60)" fill="url(#paint1_linear_53_540)"/>
<path d="M85.6934 75.6604C85.6934 78.7182 87.8427 81.4866 91.3176 83.4906V103.849C87.8427 101.845 85.6934 99.0767 85.6934 96.0189V75.6604Z" fill="#FF7A9D"/>
<path d="M91.3177 83.4906C98.8167 87.8151 110.975 87.8151 118.474 83.4906V103.849C110.975 108.174 98.8167 108.174 91.3177 103.849V83.4906Z" fill="#EC436F"/>
<path d="M124.098 75.6604C124.098 78.7182 121.949 81.4866 118.474 83.4906V103.849C121.949 101.845 124.098 99.0767 124.098 96.0189V75.6604Z" fill="#EC436F"/>
<circle cx="15.6741" cy="15.6741" r="15.6741" transform="matrix(0.866278 0.499562 -0.866278 0.499562 145.66 83.4906)" fill="url(#paint2_linear_53_540)"/>
<path d="M126.458 99.1509C126.458 102.209 128.607 104.977 132.082 106.981V127.34C128.607 125.336 126.458 122.567 126.458 119.509V99.1509Z" fill="#FF7A9D"/>
<path d="M132.082 106.981C139.581 111.306 151.74 111.306 159.239 106.981V127.34C151.74 131.664 139.581 131.664 132.082 127.34V106.981Z" fill="#EC436F"/>
<path d="M164.863 99.1509C164.863 102.209 162.713 104.977 159.238 106.981V127.34C162.713 125.336 164.863 122.567 164.863 119.509V99.1509Z" fill="#EC436F"/>
<circle cx="15.6741" cy="15.6741" r="15.6741" transform="matrix(0.866278 0.499562 -0.866278 0.499562 67.2672 83.4906)" fill="url(#paint3_linear_53_540)"/>
<path d="M48.0647 99.1509C48.0647 102.209 50.214 104.977 53.6889 106.981V127.34C50.214 125.336 48.0647 122.567 48.0647 119.509V99.1509Z" fill="#FF7A9D"/>
<path d="M53.6891 106.981C61.1881 111.306 73.3463 111.306 80.8453 106.981V127.34C73.3463 131.664 61.1881 131.664 53.6891 127.34V106.981Z" fill="#EC436F"/>
<path d="M86.4695 99.1509C86.4695 102.209 84.3202 104.977 80.8452 106.981V127.34C84.3202 125.336 86.4695 122.567 86.4695 119.509V99.1509Z" fill="#EC436F"/>
<circle cx="15.6741" cy="15.6741" r="15.6741" transform="matrix(0.866278 0.499562 -0.866278 0.499562 104.896 106.981)" fill="url(#paint4_linear_53_540)"/>
<path d="M85.6934 122.642C85.6934 125.699 87.8427 128.468 91.3176 130.472V150.83C87.8427 148.826 85.6934 146.058 85.6934 143V122.642Z" fill="#FF7A9D"/>
<path d="M91.3177 130.472C98.8167 134.796 110.975 134.796 118.474 130.472V150.83C110.975 155.155 98.8167 155.155 91.3177 150.83V130.472Z" fill="#EC436F"/>
<path d="M124.098 122.642C124.098 125.699 121.949 128.468 118.474 130.472V150.83C121.949 148.826 124.098 146.058 124.098 143V122.642Z" fill="#EC436F"/>
<defs>
<linearGradient id="paint0_linear_53_540" x1="45.5974" y1="0" x2="45.5974" y2="91.1947" gradientUnits="userSpaceOnUse">
<stop stop-color="#FF9BBB"/>
<stop offset="1" stop-color="#FF507F"/>
</linearGradient>
<linearGradient id="paint1_linear_53_540" x1="15.6741" y1="0" x2="15.6741" y2="31.3482" gradientUnits="userSpaceOnUse">
<stop stop-color="#FF9BBB"/>
<stop offset="1" stop-color="#FF507F"/>
</linearGradient>
<linearGradient id="paint2_linear_53_540" x1="15.6741" y1="0" x2="15.6741" y2="31.3482" gradientUnits="userSpaceOnUse">
<stop stop-color="#FF9BBB"/>
<stop offset="1" stop-color="#FF507F"/>
</linearGradient>
<linearGradient id="paint3_linear_53_540" x1="15.6741" y1="0" x2="15.6741" y2="31.3482" gradientUnits="userSpaceOnUse">
<stop stop-color="#FF9BBB"/>
<stop offset="1" stop-color="#FF507F"/>
</linearGradient>
<linearGradient id="paint4_linear_53_540" x1="15.6741" y1="0" x2="15.6741" y2="31.3482" gradientUnits="userSpaceOnUse">
<stop stop-color="#FF9BBB"/>
<stop offset="1" stop-color="#FF507F"/>
</linearGradient>
</defs>
</svg>

<svg xmlns="http://www.w3.org/2000/svg" width="224" height="257" fill="none" viewBox="0 0 224 257"><path fill="#ff7a9d" d="m194 0 6.364 23.636L224 30l-23.636 6.364L194 60l-6.364-23.636L164 30l23.636-6.364z"/><path fill="#000" fill-opacity=".2" d="m194 0 6.364 23.636L224 30l-23.636 6.364L194 60l-6.364-23.636L164 30l23.636-6.364z"/><path fill="#ff7a9d" d="m10 211 2.121 7.879L20 221l-7.879 2.121L10 231l-2.121-7.879L0 221l7.879-2.121z"/><path fill="#000" fill-opacity=".2" d="m10 211 2.121 7.879L20 221l-7.879 2.121L10 231l-2.121-7.879L0 221l7.879-2.121z"/><path fill="#ff7a9d" d="m30 217 4.243 15.757L50 237l-15.757 4.243L30 257l-4.243-15.757L10 237l15.757-4.243z"/><path fill="#000" fill-opacity=".2" d="m30 217 4.243 15.757L50 237l-15.757 4.243L30 257l-4.243-15.757L10 237l15.757-4.243z"/><path fill="url(#a)" d="M0 0h91.195v91.195H0z" transform="matrix(.86628 .49956 -.86628 .49956 105 75.66)"/><path fill="#ff7a9d" d="m26 121.218 79 45.558V226l-79-45.558z"/><path fill="#ec436f" d="m105 166.775 79-45.558v59.225L105 226z"/><circle cx="15.674" cy="15.674" r="15.674" fill="url(#b)" transform="matrix(.86628 .49956 -.86628 .49956 104.896 60)"/><path fill="#ff7a9d" d="M85.693 75.66c0 3.058 2.15 5.827 5.625 7.83v20.359c-3.475-2.004-5.625-4.772-5.625-7.83z"/><path fill="#ec436f" d="M91.318 83.49c7.499 4.325 19.657 4.325 27.156 0v20.359c-7.499 4.325-19.657 4.325-27.156 0zM124.098 75.66c0 3.058-2.149 5.827-5.624 7.83v20.359c3.475-2.004 5.624-4.772 5.624-7.83z"/><circle cx="15.674" cy="15.674" r="15.674" fill="url(#c)" transform="matrix(.86628 .49956 -.86628 .49956 145.66 83.49)"/><path fill="#ff7a9d" d="M126.458 99.15c0 3.059 2.149 5.827 5.624 7.831v20.359c-3.475-2.004-5.624-4.773-5.624-7.831z"/><path fill="#ec436f" d="M132.082 106.981c7.499 4.325 19.658 4.325 27.157 0v20.359c-7.499 4.324-19.658 4.324-27.157 0z"/><path fill="#ec436f" d="M164.863 99.15c0 3.059-2.15 5.827-5.625 7.831v20.359c3.475-2.004 5.625-4.773 5.625-7.831z"/><circle cx="15.674" cy="15.674" r="15.674" fill="url(#d)" transform="matrix(.86628 .49956 -.86628 .49956 67.267 83.49)"/><path fill="#ff7a9d" d="M48.065 99.15c0 3.059 2.149 5.827 5.624 7.831v20.359c-3.475-2.004-5.624-4.773-5.624-7.831z"/><path fill="#ec436f" d="M53.69 106.981c7.498 4.325 19.656 4.325 27.155 0v20.359c-7.499 4.324-19.657 4.324-27.156 0zM86.47 99.15c0 3.059-2.15 5.827-5.625 7.831v20.359c3.475-2.004 5.624-4.773 5.624-7.831z"/><circle cx="15.674" cy="15.674" r="15.674" fill="url(#e)" transform="matrix(.86628 .49956 -.86628 .49956 104.896 106.981)"/><path fill="#ff7a9d" d="M85.693 122.642c0 3.057 2.15 5.826 5.625 7.83v20.358c-3.475-2.004-5.625-4.772-5.625-7.83z"/><path fill="#ec436f" d="M91.318 130.472c7.499 4.324 19.657 4.324 27.156 0v20.358c-7.499 4.325-19.657 4.325-27.156 0zM124.098 122.642c0 3.057-2.149 5.826-5.624 7.83v20.358c3.475-2.004 5.624-4.772 5.624-7.83z"/><defs><linearGradient id="a" x1="45.597" x2="45.597" y1="0" y2="91.195" gradientUnits="userSpaceOnUse"><stop stop-color="#ff9bbb"/><stop offset="1" stop-color="#ff507f"/></linearGradient><linearGradient id="b" x1="15.674" x2="15.674" y1="0" y2="31.348" gradientUnits="userSpaceOnUse"><stop stop-color="#ff9bbb"/><stop offset="1" stop-color="#ff507f"/></linearGradient><linearGradient id="c" x1="15.674" x2="15.674" y1="0" y2="31.348" gradientUnits="userSpaceOnUse"><stop stop-color="#ff9bbb"/><stop offset="1" stop-color="#ff507f"/></linearGradient><linearGradient id="d" x1="15.674" x2="15.674" y1="0" y2="31.348" gradientUnits="userSpaceOnUse"><stop stop-color="#ff9bbb"/><stop offset="1" stop-color="#ff507f"/></linearGradient><linearGradient id="e" x1="15.674" x2="15.674" y1="0" y2="31.348" gradientUnits="userSpaceOnUse"><stop stop-color="#ff9bbb"/><stop offset="1" stop-color="#ff507f"/></linearGradient></defs></svg>
